X: 5
T: The Earl's Chair
R: reel
M: 4/4
L: 1/8
K: Dmaj
|:B2 B2 BAFA|B2 dB BAFB|AF F2 DF F2|AFdB ADFA|
B2 dB BAFA|B4 BAFB|A3B d3e|1 edef d3A:|2 edef d2 Bd||
|:e3f d2 Bd|e3f dBAB|e3f d3e|fedB ADFA|
e3f dB B2|gB B2 defg|afbf afeg|fedB ADFA:||


Tune 221	Setting 12904

